X:3403
L:1/8
M:3/4
K:F
 cB A2 Bd | cB A2 B2 | ccfe d2 | c3 dBG | GA B2 GF | Acfedc | dB A2 F2 | GF F4 |]

